X: 1
T:Around the World -- Reel
M:C|
L:1/8
R:reel
B:Ryan's Mammoth Collection
N:215
Z:Contributed by Ray Davies,  ray:davies99.freeserve.co.uk
K:C
 vc2ec gcec | c2ec dBGB | c2ec gcec | afge dBGB :|
|:ceAe ceAe | ceAe dBGB | ceAe ceAe | afge dBGB :|
